X:476
T:Polska efter Mattes Anders Norman
R:Polska
Z:Håkan Lidén, 2008-09-26
O:Dalarna
S:efter Mattes Anders Norman
Q:1/4=92
M:3/4
L:1/8
K:A
Ac/e/ aa gg | fe/f/ e2 c2 | cB/c/ dd cc | BA/B/ A2 E2 | Ac/e/ aa gg |
fe/f/ e2 c2 | cB/c/ dd cc | BA/B/ A4 :: Ac cB/c/ B2 | Bd dc/d/ c2 | ce ed/e/ d2 |
df fe/f/ e2 | ec/e/ aa gg | fe/f/ e2 c2 | c/d/e/f/ ec dB | BA/G/ A4 :|]
(:musicend:)

(:music:)
